src/assets/selectIcons/tesoro_2.svg

<svg xmlns="http://www.w3.org/2000/svg" viewBox="0 0 512 512"><path d="M0 0h512v512H0z"/><path fill="#fff" d="M375.4 395.8c-7 8.2-18.6 15.2-32.7 20.2-24.3 9-55.5 13-86.7 13-31.2 0-62.4-4-86.7-13-14.1-5-25.7-12-32.7-20.2L110.8 417c10.2 12 26.6 23 47.1 30 27.5 10 62.8 15 98.1 15s70.6-5 98.1-15c20.6-7 36.9-18 47.1-30zM144.7 379h222.6c-22.7 43-199.9 43-222.6 0zM62.17 257.7c-15.35-3.8-26.75-17.6-26.75-34.1 0-19.4 15.72-35.1 35.08-35.1s35.1 15.7 35.1 35.1c0 16.5-11.42 30.3-26.77 34.1v83H334v16.6H62.17zm373.53 6.1c-12.5-3.6-21.7-15.1-21.7-28.8 0-16.6 13.4-30 30-30s30 13.4 30 30c0 13.7-9.2 25.2-21.7 28.8v61.5h-248v-16.6h231.4zm-48-96.8c-9.2-3.4-15.7-12.2-15.7-22.5 0-13.2 10.8-24 24-24s24 10.8 24 24c0 10.3-6.5 19.1-15.7 22.5v43.4c-4.4 7.2-7 15.6-7 24.6 0 9 2.6 17.4 7 24.6v32.7h-190v-16.6h173.4zM256 75c50.8 0 92 41.2 92 92s-41.2 92-92 92-92-41.2-92-92 41.2-92 92-92z"/></svg>

<?xml version="1.0" encoding="UTF-8" standalone="no"?>
<!DOCTYPE svg PUBLIC "-//W3C//DTD SVG 1.1//EN" "http://www.w3.org/Graphics/SVG/1.1/DTD/svg11.dtd">
<svg width="100%" height="100%" viewBox="0 0 512 512" version="1.1" xmlns="http://www.w3.org/2000/svg" xmlns:xlink="http://www.w3.org/1999/xlink" xml:space="preserve" xmlns:serif="http://www.serif.com/" style="fill-rule:evenodd;clip-rule:evenodd;stroke-linejoin:round;stroke-miterlimit:2;">
    <rect x="0" y="0" width="512" height="512" style="fill-rule:nonzero;"/>
    <path d="M375.4,395.8C368.4,404 356.8,411 342.7,416C318.4,425 287.2,429 256,429C224.8,429 193.6,425 169.3,416C155.2,411 143.6,404 136.6,395.8L110.8,417C121,429 137.4,440 157.9,447C185.4,457 220.7,462 256,462C291.3,462 326.6,457 354.1,447C374.7,440 391,429 401.2,417L375.4,395.8ZM144.7,379L367.3,379C344.6,422 167.4,422 144.7,379ZM62.17,257.7C46.82,253.9 35.42,240.1 35.42,223.6C35.42,204.2 51.14,188.5 70.5,188.5C89.86,188.5 105.6,204.2 105.6,223.6C105.6,240.1 94.18,253.9 78.83,257.7L78.83,340.7L334,340.7L334,357.3L62.17,357.3L62.17,257.7ZM435.7,263.8C423.2,260.2 414,248.7 414,235C414,218.4 427.4,205 444,205C460.6,205 474,218.4 474,235C474,248.7 464.8,260.2 452.3,263.8L452.3,325.3L204.3,325.3L204.3,308.7L435.7,308.7L435.7,263.8ZM387.7,167C378.5,163.6 372,154.8 372,144.5C372,131.3 382.8,120.5 396,120.5C409.2,120.5 420,131.3 420,144.5C420,154.8 413.5,163.6 404.3,167L404.3,210.4C399.9,217.6 397.3,226 397.3,235C397.3,244 399.9,252.4 404.3,259.6L404.3,292.3L214.3,292.3L214.3,275.7L387.7,275.7L387.7,167Z" style="fill:rgb(223,207,101);fill-rule:nonzero;"/>
    <path d="M256,75C306.8,75 348,116.2 348,167C348,217.8 306.8,259 256,259C205.2,259 164,217.8 164,167C164,116.2 205.2,75 256,75Z" style="fill:rgb(223,207,101);"/>
</svg>
